X: 14077
T: Free Press, The
R: jig
M: 6/8
K: Amajor
|:EFA cea|f2a ecA|EFA Bce|Bcc BAF|
EFA cea|f2a ece|afe fec|ecB A2F:|
|:EFA cz B-|B2c BAF|EFA B2A|Bce BAF|
EFA cz B-|B2c BAF|afe fec|ecB A2F:|

